icons/Calendar-Search.svg

<svg width="24" height="24" viewBox="0 0 24 24" fill="none" xmlns="http://www.w3.org/2000/svg">
<path d="M17.47 20.94C19.2981 20.94 20.78 19.4581 20.78 17.63C20.78 15.8019 19.2981 14.32 17.47 14.32C15.642 14.32 14.16 15.8019 14.16 17.63C14.16 19.4581 15.642 20.94 17.47 20.94Z" stroke="#00153F" stroke-width="1.5" stroke-linecap="round" stroke-linejoin="round"/>
<path d="M19.84 20L21.26 21.42" stroke="#00153F" stroke-width="1.5" stroke-linecap="round" stroke-linejoin="round"/>
<path d="M13.13 22H6.73999C5.67912 22 4.66171 21.5786 3.91156 20.8284C3.16142 20.0783 2.73999 19.0609 2.73999 18V8.75C2.73999 7.68913 3.16142 6.67172 3.91156 5.92157C4.66171 5.17143 5.67912 4.75 6.73999 4.75H16.74C17.8009 4.75 18.8183 5.17143 19.5684 5.92157C20.3186 6.67172 20.74 7.68913 20.74 8.75V12.75" stroke="#00153F" stroke-width="1.5" stroke-linecap="round" stroke-linejoin="round"/>
<path d="M7.73999 3.25V6.25" stroke="#00153F" stroke-width="1.5" stroke-linecap="round" stroke-linejoin="round"/>
<path d="M16.74 3.25V6.25" stroke="#00153F" stroke-width="1.5" stroke-linecap="round" stroke-linejoin="round"/>
<path d="M2.73999 9.75H20.74" stroke="#00153F" stroke-width="1.5" stroke-linecap="round" stroke-linejoin="round"/>
<path d="M7.69995 14V14.001" stroke="#00153F" stroke-width="2" stroke-linecap="round" stroke-linejoin="round"/>
<path d="M11.7 14V14.001" stroke="#00153F" stroke-width="2" stroke-linecap="round" stroke-linejoin="round"/>
<path d="M7.69995 18V18.001" stroke="#00153F" stroke-width="2" stroke-linecap="round" stroke-linejoin="round"/>
</svg>

<svg xmlns="http://www.w3.org/2000/svg" fill="none" viewBox="0 0 24 24"><path stroke="currentColor" stroke-linecap="round" stroke-linejoin="round" stroke-width="1.5" d="M17.47 20.94a3.31 3.31 0 1 0 0-6.62 3.31 3.31 0 0 0 0 6.62Zm2.37-.94 1.42 1.42"/><path stroke="currentColor" stroke-linecap="round" stroke-linejoin="round" stroke-width="1.5" d="M13.13 22H6.74a4 4 0 0 1-4-4V8.75a4 4 0 0 1 4-4h10a4 4 0 0 1 4 4v4m-13-9.5v3m9-3v3m-14 3.5h18"/><path stroke="currentColor" stroke-linecap="round" stroke-linejoin="round" stroke-width="2" d="M7.7 14v.001m4-.001v.001M7.7 18v.001"/></svg>
